X: 17
M: C|
L: 1/8
K: D
[|\
e3a (ef)(ec) | (ec) (BA) (A3B/d/) |
(AB)(AF) (AF)(ED) | E2e2 e2(fg) |\
(af) (df) (ec) (Ac) | (dB) (Ge) c3A |\
(FA) (GB) (Aa) (eg) | f2d2 d4 |]


